X:25
T:Les filles de marbre
C:Trad. militaire
R:Danse de caractre
A:Provence
I:abc2nwc
M:2/4
L:1/16
K:C
G2e2 e2d2|({de}d2)c2 c4|G2e2 e2d2|({de}d2)c2 B4|
d2g2 g2^f2|({^fg}f2)e2 e2d2|^f2e2 d2c2|({Bc}B2)A2 G4||
g2g2 g2g2|agfe f2d2|f2f2 f2f2|gfed e2c2|
g2g2 g2g2|agfe f2d2|f2f2 f2f2|gfed c4|]
%%footer $D   Galouvielle-MBe 2005 \nDanse de caractre France
